X:8928
T:La Flor del Agua (CT 195) (Arrg.)
C:Cancioneru de Torner 195
M:3/4
L:1/8
Q:1/4=104
K:G
| "G"B2 B cdd| "D"c2 B cdd| "D"c2 d4| "G"B2 B cdd| "D"c2 d c^Ac| "D"=A2 G4| 
M:2/4
| "D"cc/2^A/2 c=A| "G"FG G2| "D"cc/2^A/2 c=A| "G"FG G2| |
